public/assets/image/logo_defisoft.svg

<svg width="120" height="40" viewBox="0 0 120 40" fill="none" xmlns="http://www.w3.org/2000/svg">
<path d="M20.3301 35.595C11.3787 35.595 4.09229 28.3086 4.09229 19.3528C4.09229 10.397 11.3787 3.11499 20.3301 3.11499C29.2859 3.11499 36.5679 10.4014 36.5679 19.3528C36.5679 28.3043 29.2859 35.595 20.3301 35.595ZM20.3301 4.41923C12.096 4.41923 5.39653 11.1187 5.39653 19.3528C5.39653 27.5869 12.096 34.2864 20.3301 34.2864C28.5642 34.2864 35.2637 27.5869 35.2637 19.3528C35.2637 11.1187 28.5686 4.41923 20.3301 4.41923Z" fill="url(#paint0_linear_697_6478)"/>
<path d="M20.3301 29.2477L9.86572 18.7833L20.3301 8.31891L30.7945 18.7833L20.3301 29.2477ZM11.7091 18.7833L20.3301 27.4043L28.9511 18.7833L20.3301 10.1622L11.7091 18.7833Z" fill="url(#paint1_linear_697_6478)"/>
<path d="M20.3301 24.5089L14.6045 18.7833L20.3301 13.0577L26.0557 18.7833L20.3301 24.5089ZM16.4478 18.7833L20.3301 22.6656L24.2124 18.7833L20.3301 14.901L16.4478 18.7833Z" fill="url(#paint2_linear_697_6478)"/>
<path d="M45.3759 13.9185C46.3584 13.9185 47.2409 14.0576 48.0235 14.3402C48.806 14.6227 49.4712 15.0184 50.0233 15.5314C50.5711 16.0444 50.9928 16.6748 51.2841 17.4182C51.5754 18.1616 51.7232 18.9963 51.7232 19.9223C51.7232 20.8483 51.5797 21.6787 51.2841 22.4178C50.9928 23.1568 50.5711 23.7785 50.0233 24.2872C49.4755 24.7958 48.8104 25.1871 48.0235 25.461C47.2366 25.7349 46.3584 25.874 45.3759 25.874H41.6544V13.9185H45.3759V13.9185ZM45.3759 24.5828C46.9409 24.5828 48.1278 24.1698 48.9277 23.3481C49.7277 22.5265 50.1276 21.3831 50.1276 19.918C50.1276 19.1876 50.0277 18.5268 49.8277 17.9442C49.6277 17.3617 49.3277 16.8617 48.9277 16.453C48.5278 16.04 48.0322 15.727 47.4366 15.5096C46.841 15.2923 46.1541 15.1836 45.3802 15.1836H43.2195V24.5828H45.3759V24.5828Z" fill="black"/>
<path d="M60.2137 15.1879H55.3446V19.1832H59.7007V20.4701H55.3446V24.5872H60.2137V25.874H53.7838V13.9011H60.2137V15.1879Z" fill="black"/>
<path d="M62.5789 13.9185H69.3348V15.1879H64.1396V19.218H68.361V20.4875H64.1396V25.874H62.5789V13.9185Z" fill="black"/>
<path d="M71.2216 13.9185H72.7823V25.874H71.2216V13.9185Z" fill="black"/>
<path d="M83.2076 22.6134C83.2076 23.0351 83.1207 23.4525 82.9511 23.8568C82.7815 24.2611 82.525 24.622 82.1859 24.9393C81.8468 25.2523 81.4338 25.5088 80.9426 25.7045C80.4513 25.9001 79.8774 25.9958 79.2297 25.9958C78.6254 25.9958 78.0732 25.9175 77.5733 25.7567C77.0777 25.5958 76.6429 25.3697 76.2777 25.0784C75.9125 24.7872 75.6256 24.4394 75.4213 24.0307C75.2169 23.6264 75.1083 23.1742 75.0952 22.683H76.7603C76.782 22.9351 76.8472 23.1786 76.9559 23.4134C77.0646 23.6481 77.2168 23.8612 77.4124 24.0481C77.608 24.235 77.8559 24.3872 78.1602 24.5046C78.4645 24.6176 78.821 24.6741 79.234 24.6741C79.9905 24.6741 80.5774 24.4872 80.9991 24.109C81.4208 23.7307 81.6338 23.2569 81.6338 22.6873C81.6338 22.2874 81.5425 21.957 81.3599 21.7005C81.1773 21.444 80.9339 21.2353 80.6295 21.0744C80.3252 20.9136 79.9818 20.7788 79.5905 20.6701C79.2036 20.5614 78.8036 20.4484 78.3993 20.3353C77.995 20.2223 77.595 20.0919 77.2081 19.9484C76.8212 19.805 76.4734 19.6137 76.169 19.3746C75.8647 19.1354 75.6213 18.8311 75.4387 18.4659C75.2561 18.1007 75.1648 17.6356 75.1648 17.0747C75.1648 16.5835 75.2604 16.1357 75.4474 15.727C75.6343 15.3227 75.9038 14.9706 76.2516 14.6793C76.5994 14.388 77.0168 14.1619 77.5037 14.0011C77.9906 13.8402 78.5297 13.762 79.1253 13.762C79.6992 13.762 80.2165 13.8359 80.6774 13.9837C81.1426 14.1315 81.5425 14.3402 81.886 14.6097C82.2294 14.8793 82.5033 15.201 82.7076 15.5792C82.912 15.9574 83.038 16.3748 83.0859 16.8313H81.3686C81.3469 16.6269 81.2817 16.4226 81.173 16.2226C81.0643 16.0227 80.9121 15.8401 80.7165 15.6749C80.5209 15.5096 80.2861 15.3705 80.0122 15.2618C79.7383 15.1532 79.4166 15.101 79.0514 15.101C78.7297 15.0879 78.4297 15.1227 78.1515 15.2053C77.8733 15.2836 77.6298 15.4053 77.4211 15.5662C77.2168 15.727 77.0516 15.927 76.9342 16.1748C76.8125 16.4226 76.7559 16.7052 76.7559 17.0226C76.7559 17.4095 76.8472 17.7269 77.0298 17.966C77.2124 18.2051 77.4559 18.4094 77.7602 18.5746C78.0645 18.7398 78.408 18.8789 78.7993 18.9876C79.1862 19.0963 79.5818 19.2094 79.9818 19.3224C80.3817 19.4354 80.7774 19.5702 81.1643 19.718C81.5512 19.8658 81.899 20.0658 82.2033 20.3093C82.5077 20.5571 82.7511 20.8657 82.9337 21.2353C83.1163 21.6048 83.2076 22.0613 83.2076 22.6134Z" fill="black"/>
<path d="M96.9283 19.8876C96.9283 20.7788 96.7718 21.6005 96.4631 22.3482C96.1544 23.096 95.7327 23.7438 95.1936 24.2872C94.6545 24.8306 94.0198 25.2523 93.2894 25.548C92.559 25.8436 91.7678 25.9958 90.9244 25.9958C90.081 25.9958 89.2941 25.848 88.5681 25.548C87.842 25.2523 87.2073 24.8306 86.6639 24.2872C86.1204 23.7438 85.6944 23.1003 85.3857 22.3482C85.077 21.6005 84.9205 20.7788 84.9205 19.8876C84.9205 18.9963 85.077 18.1747 85.3857 17.4269C85.6944 16.6791 86.1204 16.0314 86.6639 15.4879C87.2073 14.9445 87.842 14.5228 88.5681 14.2271C89.2941 13.9315 90.081 13.7794 90.9244 13.7794C91.7678 13.7794 92.559 13.9272 93.2894 14.2271C94.0198 14.5228 94.6545 14.9445 95.1936 15.4879C95.7327 16.0314 96.1544 16.6791 96.4631 17.4269C96.7761 18.1747 96.9283 18.992 96.9283 19.8876ZM86.5204 19.8876C86.5204 20.6179 86.6334 21.2788 86.8552 21.8613C87.0769 22.4439 87.3856 22.9438 87.7812 23.3525C88.1768 23.7612 88.642 24.0829 89.1767 24.3046C89.7158 24.5263 90.2984 24.6394 90.9244 24.6394C91.5504 24.6394 92.1373 24.5263 92.6721 24.3046C93.2112 24.0829 93.6764 23.7655 94.0676 23.3525C94.4589 22.9395 94.7719 22.4439 94.9936 21.8613C95.2154 21.2788 95.3284 20.6223 95.3284 19.8876C95.3284 19.1572 95.2154 18.4964 94.9936 17.9051C94.7719 17.3139 94.4632 16.8182 94.0676 16.4052C93.672 15.9922 93.2068 15.6792 92.6721 15.4618C92.133 15.2445 91.5504 15.1358 90.9244 15.1358C90.2984 15.1358 89.7115 15.2445 89.1767 15.4618C88.6376 15.6792 88.1724 15.9922 87.7812 16.4052C87.3899 16.8182 87.0769 17.3182 86.8552 17.9051C86.6291 18.492 86.5204 19.1528 86.5204 19.8876Z" fill="black"/>
<path d="M98.9889 13.9185H105.745V15.1879H100.55V19.218H104.771V20.4875H100.55V25.874H98.9889V13.9185Z" fill="black"/>
<path d="M106.893 13.9185H114.988V15.1879H111.727V25.874H110.171V15.1879H106.893V13.9185Z" fill="black"/>
<defs>
<linearGradient id="paint0_linear_697_6478" x1="20.3318" y1="35.5937" x2="20.3318" y2="3.11499" gradientUnits="userSpaceOnUse">
<stop stop-color="#CC7822"/>
<stop offset="0.4966" stop-color="#FEE19C"/>
<stop offset="1" stop-color="#D88E42"/>
</linearGradient>
<linearGradient id="paint1_linear_697_6478" x1="20.332" y1="29.2472" x2="20.332" y2="8.31625" gradientUnits="userSpaceOnUse">
<stop stop-color="#D19435"/>
<stop offset="0.1303" stop-color="#E3AF54"/>
<stop offset="0.2719" stop-color="#F2C66E"/>
<stop offset="0.3985" stop-color="#FBD47E"/>
<stop offset="0.4966" stop-color="#FED984"/>
<stop offset="0.5959" stop-color="#FCD67F"/>
<stop offset="0.7152" stop-color="#F5CB70"/>
<stop offset="0.8447" stop-color="#EABB58"/>
<stop offset="0.9807" stop-color="#DBA436"/>
<stop offset="1" stop-color="#D9A031"/>
</linearGradient>
<linearGradient id="paint2_linear_697_6478" x1="20.3319" y1="24.5087" x2="20.3319" y2="13.055" gradientUnits="userSpaceOnUse">
<stop stop-color="#F9CE57"/>
<stop offset="0.1447" stop-color="#F9D167"/>
<stop offset="0.3428" stop-color="#F9D377"/>
<stop offset="0.4966" stop-color="#F9D47D"/>
<stop offset="0.5959" stop-color="#F7D078"/>
<stop offset="0.7152" stop-color="#F0C669"/>
<stop offset="0.8447" stop-color="#E4B551"/>
<stop offset="0.9807" stop-color="#D59E2F"/>
<stop offset="1" stop-color="#D29A2A"/>
</linearGradient>
</defs>
</svg>

<svg width="120" height="40" fill="none" xmlns="http://www.w3.org/2000/svg"><path d="M20.33 35.595c-8.951 0-16.238-7.286-16.238-16.242 0-8.956 7.287-16.238 16.238-16.238 8.956 0 16.238 7.286 16.238 16.238 0 8.951-7.282 16.242-16.238 16.242Zm0-31.176c-8.234 0-14.933 6.7-14.933 14.934 0 8.234 6.699 14.933 14.933 14.933s14.934-6.7 14.934-14.933c0-8.234-6.695-14.934-14.934-14.934Z" fill="url(#a)"/><path d="M20.33 29.248 9.866 18.783 20.33 8.32l10.465 10.464L20.33 29.248Zm-8.62-10.465 8.62 8.621 8.621-8.62-8.62-8.622-8.622 8.621Z" fill="url(#b)"/><path d="m20.33 24.509-5.725-5.726 5.725-5.725 5.726 5.725-5.726 5.726Zm-3.882-5.726 3.882 3.883 3.882-3.883-3.882-3.882-3.882 3.882Z" fill="url(#c)"/><path d="M45.376 13.918c.982 0 1.865.14 2.648.422.782.283 1.447.678 2 1.191.547.513.969 1.144 1.26 1.887.291.744.44 1.578.44 2.504 0 .926-.144 1.757-.44 2.496a5.027 5.027 0 0 1-1.26 1.87c-.549.508-1.214.9-2 1.173-.787.274-1.666.413-2.648.413h-3.722V13.919h3.722Zm0 10.665c1.565 0 2.752-.413 3.552-1.235.8-.822 1.2-1.965 1.2-3.43 0-.73-.1-1.391-.3-1.974-.2-.582-.5-1.082-.9-1.491a3.893 3.893 0 0 0-1.491-.943c-.596-.218-1.283-.326-2.057-.326h-2.16v9.399h2.156ZM60.214 15.188h-4.87v3.995h4.357v1.287h-4.356v4.117h4.869v1.287h-6.43V13.901h6.43v1.287ZM62.579 13.918h6.756v1.27H64.14v4.03h4.221v1.27H64.14v5.386h-1.561V13.919ZM71.222 13.918h1.56v11.956h-1.56V13.919ZM83.208 22.613a3.2 3.2 0 0 1-.257 1.244 3.14 3.14 0 0 1-.765 1.082c-.34.313-.752.57-1.243.765-.492.196-1.066.292-1.713.292a5.39 5.39 0 0 1-1.657-.24 4.08 4.08 0 0 1-1.295-.678 3.105 3.105 0 0 1-.857-1.047 3.143 3.143 0 0 1-.326-1.348h1.665c.022.252.087.496.196.73.109.235.26.448.456.635s.444.34.748.457c.305.113.661.17 1.074.17.757 0 1.343-.188 1.765-.566.422-.378.635-.852.635-1.422 0-.4-.091-.73-.274-.986a2.059 2.059 0 0 0-.73-.627 5.178 5.178 0 0 0-1.04-.404l-1.19-.335a15.214 15.214 0 0 1-1.192-.387 3.82 3.82 0 0 1-1.039-.573 2.639 2.639 0 0 1-.73-.91c-.183-.364-.274-.83-.274-1.39 0-.491.095-.94.282-1.348.187-.404.457-.756.805-1.048a3.765 3.765 0 0 1 1.252-.678 5.142 5.142 0 0 1 1.621-.239 5.07 5.07 0 0 1 1.552.222c.466.148.865.356 1.209.626.343.27.617.591.822.97.204.377.33.795.378 1.251h-1.717a1.633 1.633 0 0 0-.196-.608 1.92 1.92 0 0 0-.457-.548 2.526 2.526 0 0 0-.704-.413 2.604 2.604 0 0 0-.96-.161 2.75 2.75 0 0 0-.9.104c-.279.079-.522.2-.73.361-.205.161-.37.361-.488.609-.121.248-.178.53-.178.848 0 .387.091.704.274.943.182.24.426.443.73.609.304.165.648.304 1.04.413.386.108.782.221 1.182.334.4.113.795.248 1.182.396.387.148.735.348 1.04.591.304.248.547.557.73.926.182.37.274.826.274 1.378ZM96.928 19.888c0 .89-.156 1.712-.465 2.46a5.932 5.932 0 0 1-1.27 1.94 5.628 5.628 0 0 1-1.904 1.26 6.257 6.257 0 0 1-2.365.448c-.843 0-1.63-.148-2.356-.448a5.713 5.713 0 0 1-1.904-1.26 5.84 5.84 0 0 1-1.278-1.94 6.393 6.393 0 0 1-.465-2.46c0-.892.156-1.713.465-2.461a5.885 5.885 0 0 1 1.278-1.94 5.713 5.713 0 0 1 1.904-1.26 6.196 6.196 0 0 1 2.356-.448c.844 0 1.635.148 2.365.448.73.296 1.365.717 1.905 1.26.539.544.96 1.192 1.27 1.94.312.748.464 1.565.464 2.46Zm-10.408 0c0 .73.113 1.39.335 1.973.222.583.53 1.083.926 1.491.396.41.861.73 1.396.953.539.221 1.121.334 1.747.334.626 0 1.213-.113 1.748-.334a3.986 3.986 0 0 0 1.396-.953c.39-.413.704-.908.926-1.49.221-.583.334-1.24.334-1.974 0-.73-.113-1.392-.334-1.983a4.33 4.33 0 0 0-.926-1.5 3.987 3.987 0 0 0-1.396-.943 4.631 4.631 0 0 0-1.748-.326c-.626 0-1.213.109-1.747.326-.54.217-1.005.53-1.396.943a4.436 4.436 0 0 0-.926 1.5c-.226.587-.335 1.248-.335 1.983ZM98.989 13.918h6.756v1.27h-5.195v4.03h4.221v1.27h-4.221v5.386h-1.561V13.919ZM106.893 13.918h8.095v1.27h-3.261v10.686h-1.556V15.188h-3.278v-1.27Z" fill="#000"/><defs><linearGradient id="a" x1="20.332" y1="35.594" x2="20.332" y2="3.115" gradientUnits="userSpaceOnUse"><stop stop-color="#CC7822"/><stop offset=".497" stop-color="#FEE19C"/><stop offset="1" stop-color="#D88E42"/></linearGradient><linearGradient id="b" x1="20.332" y1="29.247" x2="20.332" y2="8.316" gradientUnits="userSpaceOnUse"><stop stop-color="#D19435"/><stop offset=".13" stop-color="#E3AF54"/><stop offset=".272" stop-color="#F2C66E"/><stop offset=".399" stop-color="#FBD47E"/><stop offset=".497" stop-color="#FED984"/><stop offset=".596" stop-color="#FCD67F"/><stop offset=".715" stop-color="#F5CB70"/><stop offset=".845" stop-color="#EABB58"/><stop offset=".981" stop-color="#DBA436"/><stop offset="1" stop-color="#D9A031"/></linearGradient><linearGradient id="c" x1="20.332" y1="24.509" x2="20.332" y2="13.055" gradientUnits="userSpaceOnUse"><stop stop-color="#F9CE57"/><stop offset=".145" stop-color="#F9D167"/><stop offset=".343" stop-color="#F9D377"/><stop offset=".497" stop-color="#F9D47D"/><stop offset=".596" stop-color="#F7D078"/><stop offset=".715" stop-color="#F0C669"/><stop offset=".845" stop-color="#E4B551"/><stop offset=".981" stop-color="#D59E2F"/><stop offset="1" stop-color="#D29A2A"/></linearGradient></defs></svg>
